X:1133
T:Bank of Turf
M:6/8
L:1/8
K:D Major
ABA DFA|BAF D3|dcd ede|f3 def|!
g3 gab|afd Bcd|[1 e2d e2d|cBA Bcd:|[2 ABc dfe|d3 d3|]!
e3 efg|f3 fga|g3 f3|edB ABd|!
e3 efg|f3 fga|gfe dcB|A3 A3:|!


